public/images/sprite-buttons.svg

<?xml version="1.0" encoding="UTF-8" standalone="no"?>
<svg
   xmlns:bx="https://boxy-svg.com"
   xmlns:dc="http://purl.org/dc/elements/1.1/"
   xmlns:cc="http://creativecommons.org/ns#"
   xmlns:rdf="http://www.w3.org/1999/02/22-rdf-syntax-ns#"
   xmlns:svg="http://www.w3.org/2000/svg"
   xmlns="http://www.w3.org/2000/svg"
   xmlns:sodipodi="http://sodipodi.sourceforge.net/DTD/sodipodi-0.dtd"
   xmlns:inkscape="http://www.inkscape.org/namespaces/inkscape"
   id="Layer_1"
   viewBox="0 0 150 30"
   preserveAspectRatio="xMinYMin"
   version="1.1"
   sodipodi:docname="sprite-buttons.svg"
   width="150"
   height="30"
   inkscape:version="0.92.4 (5da689c313, 2019-01-14)">
  <metadata
     id="metadata4612">
    <rdf:RDF>
      <cc:Work
         rdf:about="">
        <dc:format>image/svg+xml</dc:format>
        <dc:type
           rdf:resource="http://purl.org/dc/dcmitype/StillImage" />
        <dc:title></dc:title>
      </cc:Work>
    </rdf:RDF>
  </metadata>
  <defs
     id="defs4610" />
  <sodipodi:namedview
     pagecolor="#ffffff"
     bordercolor="#666666"
     borderopacity="1"
     objecttolerance="10"
     gridtolerance="10"
     guidetolerance="10"
     inkscape:pageopacity="0"
     inkscape:pageshadow="2"
     inkscape:window-width="1920"
     inkscape:window-height="1017"
     id="namedview4608"
     showgrid="false"
     inkscape:zoom="12"
     inkscape:cx="139.34325"
     inkscape:cy="0.34090301"
     inkscape:window-x="-8"
     inkscape:window-y="-8"
     inkscape:window-maximized="1"
     inkscape:current-layer="Layer_1" />
  <rect
     width="30"
     height="30"
     style="fill:#c31212"
     id="rect4566"
     x="0"
     y="0" />
  <rect
     x="7"
     y="14.859"
     width="16"
     height="11.141"
     rx="1.8"
     ry="1.8"
     style="fill:#ffffff"
     id="rect4568" />
  <path
     d="m 18.556,8.217 c 0,-1.15 -0.772,-2.083 -1.724,-2.083 h -3.65 c -0.956,0 -1.729,0.933 -1.729,2.083 v 3.737 h -0.009 v 3.654 H 9.403 V 11.923 H 9.416 V 6.846 C 9.416,5.274 10.633,4 12.134,4 h 5.744 c 1.501,0 2.718,1.274 2.718,2.846 v 8.784 h -2.041 v -3.685 h 0.001 z"
     style="fill:#ffffff"
     id="path4570"
     inkscape:connector-curvature="0" />
  <g
     transform="matrix(1.304312,0,0,1.365527,-7.661772,12.265081)"
     id="g4576">
    <circle
       cx="17.375"
       cy="5.3330002"
       style="fill:#c31212"
       id="ellipse4572"
       r="1.041" />
    <path
       d="m 17.375,4.292 1.103,3.499 h -2.207 z"
       style="fill:#c31212"
       bx:shape="triangle 16.271 4.292 2.207 3.499 0.5 0 1@4b2624a6"
       id="path4574"
       inkscape:connector-curvature="0" />
  </g>
  <g
     id="remove_x5F_2"
     transform="matrix(0.888889,0,0,0.883978,67,7)">
    <path
       d="M 12.2,9.1 17.8,3.5 C 18,3.3 18,2.9 17.8,2.7 L 15.4,0.3 C 15.2,0.1 14.8,0.1 14.6,0.3 L 9.1,5.9 3.3,0.2 C 3.1,0 2.7,0 2.5,0.2 L 0.2,2.5 C 0,2.7 0,3.1 0.2,3.3 L 5.9,9 0.2,14.7 C 0,14.9 0,15.3 0.2,15.5 l 2.4,2.4 c 0.2,0.2 0.6,0.2 0.8,0 l 5.6,-5.6 5.6,5.6 c 0.2,0.2 0.6,0.2 0.8,0 l 2.4,-2.4 c 0.2,-0.2 0.2,-0.6 0,-0.8 z"
       style="fill:#444444;stroke-width:0"
       id="path4578"
       inkscape:connector-curvature="0" />
  </g>
  <g
     transform="matrix(1.304312,0,0,1.365527,24.169018,-0.040076)"
     id="g4595">
    <g
       id="g4593">
      <g
         transform="translate(5.970357,2.479256)"
         id="g4589">
        <rect
           x="3.8670001"
           y="9.8959999"
           width="12.267"
           height="8.1590004"
           rx="1.8"
           ry="1.8"
           style="fill:#444444"
           id="rect4581" />
        <g
           transform="translate(-7.374,7.996668)"
           id="g4587">
          <circle
             cx="17.375"
             cy="5.3330002"
             style="fill:#ffffff"
             id="ellipse4583"
             r="1.041" />
          <path
             d="m 17.375,4.292 1.103,3.499 h -2.207 z"
             style="fill:#ffffff"
             bx:shape="triangle 16.271 4.292 2.207 3.499 0.5 0 1@4b2624a6"
             id="path4585"
             inkscape:connector-curvature="0" />
        </g>
      </g>
      <path
         d="m 18.697,4.582 c 0,-0.842 -0.592,-1.525 -1.322,-1.525 h -2.798 c -0.733,0 -1.326,0.683 -1.326,1.525 V 7.319 H 13.244 V 9.995 H 11.679 V 7.296 h 0.01 V 3.578 c 0,-1.151 0.933,-2.084 2.084,-2.084 h 4.404 c 1.151,0 2.084,0.933 2.084,2.084 v 6.433 H 18.696 V 7.312 h 10e-4 z"
         style="fill:#444444"
         id="path4591"
         inkscape:connector-curvature="0" />
    </g>
  </g>
  <g
     id="g4605">
    <rect
       x="99"
       y="5"
       width="16"
       height="4"
       style="fill:#444444"
       id="rect4597" />
    <rect
       x="79.219002"
       y="26.063999"
       width="16"
       height="4"
       transform="rotate(90,107.64191,33.422456)"
       style="fill:#444444"
       id="rect4599" />
    <path
       d="m 99,5 4,4 h -8 z"
       style="fill:#444444"
       bx:shape="triangle 95 5 8 4 0.5 0 1@11eaee9a"
       id="path4601"
       inkscape:connector-curvature="0" />
    <path
       d="m 98.024,14.143 4,4 h -8 z"
       transform="rotate(90,103.0835,26.059503)"
       style="fill:#444444"
       bx:shape="triangle 94.024 14.143 8 4 0.5 0 1@ceda1035"
       id="path4603"
       inkscape:connector-curvature="0" />
  </g>
  <path
     style="fill:none;fill-opacity:1;stroke:#444444;stroke-width:2;stroke-linejoin:round;stroke-miterlimit:4;stroke-dasharray:none;stroke-opacity:1"
     id="path4616-4"
     sodipodi:type="arc"
     sodipodi:cx="-84.029999"
     sodipodi:cy="-106.93762"
     sodipodi:rx="7.634944"
     sodipodi:ry="9.7681246"
     sodipodi:start="0.59860854"
     sodipodi:end="2.5649706"
     d="m -77.722615,-101.43335 a 7.634944,9.7681246 0 0 1 -6.391315,4.263262 7.634944,9.7681246 0 0 1 -6.316512,-4.442002"
     transform="rotate(135)"
     sodipodi:open="true" />
  <path
     style="fill:#444444;fill-opacity:1;stroke:#444444;stroke-width:0.94596666px;stroke-linecap:butt;stroke-linejoin:miter;stroke-opacity:1"
     d="m 129.83921,15.775366 -6.15336,0.984267 3.55694,2.689838 z"
     id="path4650-1"
     inkscape:connector-curvature="0"
     sodipodi:nodetypes="cccc" />
  <path
     style="fill:none;fill-opacity:1;stroke:#444444;stroke-width:2;stroke-linejoin:round;stroke-miterlimit:4;stroke-dasharray:none;stroke-opacity:1"
     id="path4616-4-0"
     sodipodi:type="arc"
     sodipodi:cx="83.906654"
     sodipodi:cy="103.42107"
     sodipodi:rx="7.634944"
     sodipodi:ry="9.7681246"
     sodipodi:start="0.59860854"
     sodipodi:end="2.5649706"
     d="m 90.214038,108.92534 a 7.634944,9.7681246 0 0 1 -6.391315,4.26326 7.634944,9.7681246 0 0 1 -6.316511,-4.442"
     transform="rotate(-45)"
     sodipodi:open="true" />
  <path
     style="fill:#444444;fill-opacity:1;stroke:#444444;stroke-width:0.94596666px;stroke-linecap:butt;stroke-linejoin:miter;stroke-opacity:1"
     d="m 137.906,14.304882 6.15336,-0.984267 -3.55694,-2.689838 z"
     id="path4650-1-1"
     inkscape:connector-curvature="0"
     sodipodi:nodetypes="cccc" />
</svg>

<?xml version="1.0" encoding="utf-8"?>
<svg id="Layer_1" viewBox="0 0 120 30" preserveAspectRatio="xMinYMin" xmlns="http://www.w3.org/2000/svg" xmlns:bx="https://boxy-svg.com">
  <rect width="30" height="30" style="fill: rgb(195, 18, 18);"/>
  <rect x="7" y="14.859" width="16" height="11.141" rx="1.8" ry="1.8" style="fill: rgb(255, 255, 255);"/>
  <path d="M 18.556 8.217 C 18.556 7.067 17.784 6.134 16.832 6.134 L 13.182 6.134 C 12.226 6.134 11.453 7.067 11.453 8.217 L 11.453 11.954 L 11.444 11.954 L 11.444 15.608 L 9.403 15.608 L 9.403 11.923 L 9.416 11.923 L 9.416 6.846 C 9.416 5.274 10.633 4 12.134 4 L 17.878 4 C 19.379 4 20.596 5.274 20.596 6.846 L 20.596 15.63 L 18.555 15.63 L 18.555 11.945 L 18.556 11.945 Z" style="fill: rgb(255, 255, 255);"/>
  <g transform="matrix(1.304312, 0, 0, 1.365527, -7.661772, 12.265081)">
    <ellipse cx="17.375" cy="5.333" rx="1.041" ry="1.041" style="fill: rgb(195, 18, 18);"/>
    <path d="M 17.375 4.292 L 18.478 7.791 L 16.271 7.791 L 17.375 4.292 Z" style="fill: rgb(195, 18, 18);" bx:shape="triangle 16.271 4.292 2.207 3.499 0.5 0 1@4b2624a6"/>
  </g>
  <g id="remove_x5F_2" transform="matrix(0.888889, 0, 0, 0.883978, 67, 7)">
    <path d="M12.2,9.1l5.6-5.6c0.2-0.2,0.2-0.6,0-0.8l-2.4-2.4c-0.2-0.2-0.6-0.2-0.8,0L9.1,5.9L3.3,0.2&#10;&#9;&#9;c-0.2-0.2-0.6-0.2-0.8,0L0.2,2.5c-0.2,0.2-0.2,0.6,0,0.8L5.9,9l-5.7,5.7c-0.2,0.2-0.2,0.6,0,0.8l2.4,2.4c0.2,0.2,0.6,0.2,0.8,0&#10;&#9;&#9;l5.6-5.6l5.6,5.6c0.2,0.2,0.6,0.2,0.8,0l2.4-2.4c0.2-0.2,0.2-0.6,0-0.8L12.2,9.1z" style="fill: rgb(68, 68, 68); stroke-width: 0;"/>
  </g>
  <g transform="matrix(1.304312, 0, 0, 1.365527, 24.169018, -0.040076)">
    <g>
      <g transform="matrix(1, 0, 0, 1, 5.970357, 2.479256)">
        <rect x="3.867" y="9.896" width="12.267" height="8.159" rx="1.8" ry="1.8" style="fill: rgb(68, 68, 68);"/>
        <g transform="matrix(1, 0, 0, 1, -7.374, 7.996668)">
          <ellipse cx="17.375" cy="5.333" rx="1.041" ry="1.041" style="fill: rgb(255, 255, 255);"/>
          <path d="M 17.375 4.292 L 18.478 7.791 L 16.271 7.791 L 17.375 4.292 Z" style="fill: rgb(255, 255, 255);" bx:shape="triangle 16.271 4.292 2.207 3.499 0.5 0 1@4b2624a6"/>
        </g>
      </g>
      <path d="M 18.697 4.582 C 18.697 3.74 18.105 3.057 17.375 3.057 L 14.577 3.057 C 13.844 3.057 13.251 3.74 13.251 4.582 L 13.251 7.319 L 13.244 7.319 L 13.244 9.995 L 11.679 9.995 L 11.679 7.296 L 11.689 7.296 L 11.689 3.578 C 11.689 2.427 12.622 1.494 13.773 1.494 L 18.177 1.494 C 19.328 1.494 20.261 2.427 20.261 3.578 L 20.261 10.011 L 18.696 10.011 L 18.696 7.312 L 18.697 7.312 Z" style="fill: rgb(68, 68, 68);"/>
    </g>
  </g>
  <g>
    <rect x="99" y="5" width="16" height="4" style="fill: rgb(68, 68, 68);"/>
    <rect x="79.219" y="26.064" width="16" height="4" transform="matrix(0, 1, -1, 0, 141.064365, -74.219452)" style="fill: rgb(68, 68, 68);"/>
    <path d="M 99 5 L 103 9 L 95 9 L 99 5 Z" style="fill: rgb(68, 68, 68);" bx:shape="triangle 95 5 8 4 0.5 0 1@11eaee9a"/>
    <path d="M 98.024 14.143 L 102.024 18.143 L 94.024 18.143 L 98.024 14.143 Z" transform="matrix(0, 1, -1, 0, 129.143007, -77.024002)" style="fill: rgb(68, 68, 68);" bx:shape="triangle 94.024 14.143 8 4 0.5 0 1@ceda1035"/>
  </g>
</svg>
